public/logos/iberdrola.svg

<?xml version="1.0" encoding="UTF-8"?>
<svg width="252.710947px" height="230.86px" viewBox="0 0 252.710947 230.86" version="1.1" xmlns="http://www.w3.org/2000/svg" xmlns:xlink="http://www.w3.org/1999/xlink">
    <title>Group</title>
    <g id="Page-1" stroke="none" stroke-width="1" fill="none" fill-rule="evenodd">
        <g id="Logo-explicado" transform="translate(-319, -77)" fill-rule="nonzero">
            <g id="Group" transform="translate(319, 77)">
                <path d="M135.855885,133.436608 C135.855885,144.487826 139.512301,159.283672 151.395655,171.156882 C170.591843,190.336682 196.643811,190.336682 213.280507,181.294776 C233.665029,170.243558 279.370237,137.181236 231.836821,0 C231.836821,64.754658 135.855885,71.3305894 135.855885,133.436608 Z" id="Path" fill="#FF9C1A"></path>
                <path d="M179.557778,56.7292913 C176.467619,39.7379094 171.377947,22.3811214 163.834325,0 C163.834325,64.7682247 68.402963,71.3455338 68.402963,133.464565 C68.402963,144.518098 72.0384434,159.317044 83.8537549,171.192741 C102.940027,190.376559 129.115487,190.285207 145.384262,181.332759 C107.393491,140.681334 120.753881,93.5439522 179.557778,56.7292913 Z" id="Path" fill="#0DA9FF"></path>
                <path d="M111.154815,56.6208768 C108.064656,39.6619668 102.974984,22.3383491 95.4313619,0 C95.4313619,64.6444471 1.13686838e-13,71.2091864 1.13686838e-13,133.209502 C1.13686838e-13,165.030253 25.6301372,178.980324 25.6301372,178.980324 C25.6301372,178.980324 19.2680464,202.321619 23.1761879,230.86 L35.4459344,228.854107 C29.4473917,207.974589 33.1737591,185.180355 33.5373072,182.992109 C49.1698731,189.283318 65.3477611,187.459779 76.9812986,181.077393 C38.9905278,140.503657 52.3509185,93.4563586 111.154815,56.7120537 L111.154815,56.6208768 Z" id="Path" fill="#00A443"></path>
            </g>
        </g>
    </g>
</svg>

<svg xmlns="http://www.w3.org/2000/svg" width="252.711" height="230.86" viewBox="0 0 252.711 230.86"><title>Group</title><g fill="none"><path fill="#ff9c1a" d="M135.856 133.437c0 11.05 3.656 25.847 15.54 37.72 19.196 19.18 45.248 19.18 61.885 10.138C233.665 170.244 279.37 137.18 231.837 0c0 64.755-95.981 71.33-95.981 133.437"/><path fill="#0da9ff" d="M179.558 56.73c-3.09-16.992-8.18-34.349-15.724-56.73 0 64.768-95.431 71.346-95.431 133.465 0 11.053 3.635 25.852 15.45 37.728 19.087 19.184 45.262 19.092 61.531 10.14-37.99-40.652-24.63-87.789 34.174-124.604"/><path fill="#00a443" d="M111.155 56.62c-3.09-16.958-8.18-34.282-15.724-56.62C95.431 64.644 0 71.21 0 133.21c0 31.82 25.63 45.77 25.63 45.77s-6.362 23.342-2.454 51.88l12.27-2.006c-5.999-20.88-2.272-43.674-1.909-45.862 15.633 6.291 31.81 4.468 43.444-1.915-37.99-40.573-24.63-87.62 34.174-124.365z"/></g></svg>
